X: 650
T: Hollow Poplar
C:Traditional, Kenny Baker's version
B: jims roots
M:2/4
L:1/8
Q: 1/4=100
K:G
V:1 
Bc |:"G"d2 Bcd2 Bc | dedc BAG=F | "C"ECEG c2EG | cedc BdAG |
"G"EFGA Bdgb | gedc BdAF | "D"GFAc BGAF |[1 "G"GEDB, G,2Bc :|
abag fdef | "G"gabg agfa | "C"fged BdAG |
"D"FAEF DFAc |[1 "G"BGAF G2ef :|[2"G"BGAF G4 |]
V:2 "G"GEDB, G,2ef |: [P:B Part
"G"g2 gag2 ga | gedc BGfg | "D"a2fg a2fg |
% abcbook-tune_id 6298c25da80bd8f0429c86da


% abcbook-boost 0
% abcbook-tablature 
% abcbook-transpose 
% abcbook-lastupdated 1654178398794
% abcbook-soundfonts 
% abcbook-repeats 1


